;FLAVOR:Marlin
;TIME:5717
;Filament used: 6.13197m
;Layer height: 0.2
;MINX:59.017
;MINY:59.01
;MINZ:0.2
;MAXX:160.993
;MAXY:160.988
;MAXZ:30
;TARGET_MACHINE.NAME:Creality Ender-3 V3 SE
;Generated with Cura_SteamEngine 5.9.0
M82 ;absolute extrusion mode
M220 S100 ;Reset Feedrate
M221 S100 ;Reset Flowrate

G28 ;Home

M420 S1; Use saved mesh leveling data

G92 E0 ;Reset Extruder
G1 Z2.0 F3000 ;Move Z Axis up
G1 X-3 Y20 Z0.28 F5000.0 ;Move to start position
M190 S70 ; Set bed temperature and wait
M109 S200 ; Set hotend temperature and wait
G1 X-3 Y100.0 Z0.28 F1500.0 E15 ;Draw the first line
G1 X-2 Y100.0 Z0.28 F5000.0 ;Move to side a little
G1 X-2 Y20 Z0.28 F1500.0 E30 ;Draw the second line
G92 E0 ;Reset Extruder
G1 E-1.0000 F1800 ;Retract a bit
G1 Z2.0 F3000 ;Move Z Axis up
G1 E0.0000 F1800 

G92 E0
G92 E0
G1 F2400 E-0.8
;LAYER_COUNT:150
;LAYER:0
M107
G0 F9000 X71.675 Y143.623 Z0.2
;TYPE:SKIRT
G1 F2400 E0
G1 F1800 X71.071 Y142.926 E0.03068
G1 X70.04 Y141.661 E0.08495
G1 X69.261 Y140.657 E0.12722
G1 X68.484 Y139.592 E0.17107
G1 X67.818 Y138.638 E0.20976
G1 X67.064 Y137.489 E0.25547
G1 X66.39 Y136.412 E0.29773
G1 X65.755 Y135.328 E0.33952
G1 X65.149 Y134.245 E0.38079
G1 X64.53 Y133.058 E0.42532
G1 X63.962 Y131.909 E0.46795
G1 X63.398 Y130.676 E0.51304
G1 X62.954 Y129.648 E0.55029
G1 X62.451 Y128.393 E0.59526
G1 X62.111 Y127.496 E0.62716
G1 X61.567 Y125.924 E0.68249
G1 X61.296 Y125.08 E0.71197
G1 X60.831 Y123.476 E0.76752
G1 X60.526 Y122.321 E0.80725
G1 X60.215 Y120.986 E0.85284
G1 X59.968 Y119.807 E0.89291
G1 X59.717 Y118.412 E0.94005
G1 X59.54 Y117.295 E0.97767
G1 X59.364 Y115.926 E1.02357
G1 X59.233 Y114.696 E1.06472
G1 X59.133 Y113.392 E1.10821
G1 X59.061 Y112.158 E1.14933
G1 X59.028 Y110.99 E1.18819
G1 X59.017 Y109.595 E1.23459
G1 X59.042 Y108.418 E1.27375
G1 X59.1 Y107.063 E1.31885
G1 X59.202 Y105.679 E1.36501
G1 X59.279 Y104.825 E1.39353
G1 X59.484 Y103.117 E1.45075
G1 X59.651 Y101.976 E1.4891
G1 X59.86 Y100.772 E1.52975
G1 X60.126 Y99.416 E1.57571
G1 X60.414 Y98.152 E1.61882
G1 X60.713 Y96.957 E1.65979
G1 X61.023 Y95.841 E1.69832
G1 X61.441 Y94.464 E1.74618
G1 X61.862 Y93.212 E1.79011
G1 X62.275 Y92.065 E1.83066
G1 X62.775 Y90.791 E1.87618
G1 X63.23 Y89.7 E1.9155
G1 X63.722 Y88.612 E1.95521
G1 X64.326 Y87.342 E2.00199
G1 X64.933 Y86.164 E2.04606
G1 X65.507 Y85.103 E2.08618
G1 X66.089 Y84.096 E2.12487
G1 X66.823 Y82.886 E2.17194
G1 X67.548 Y81.766 E2.21631
G1 X68.245 Y80.74 E2.25757
G1 X69.02 Y79.672 E2.30146
G1 X69.758 Y78.694 E2.34221
G1 X70.465 Y77.81 E2.37986
G1 X71.414 Y76.673 E2.42912
G1 X72.31 Y75.666 E2.47395
G1 X73.096 Y74.818 E2.5124
G1 X73.912 Y73.986 E2.55116
G1 X74.95 Y72.972 E2.59943
G1 X75.758 Y72.226 E2.636
G1 X76.855 Y71.257 E2.68469
G1 X77.73 Y70.528 E2.72257
G1 X78.808 Y69.666 E2.76847
G1 X79.895 Y68.852 E2.81364
G1 X80.895 Y68.135 E2.85457
G1 X81.869 Y67.479 E2.89362
G1 X83.011 Y66.741 E2.93885
G1 X83.993 Y66.147 E2.97702
G1 X85.261 Y65.416 E3.0257
G1 X86.219 Y64.901 E3.06188
G1 X87.524 Y64.232 E3.11065
G1 X88.748 Y63.654 E3.15567
G1 X89.814 Y63.176 E3.19453
G1 X91.079 Y62.654 E3.24005
G1 X92.227 Y62.208 E3.28101
G1 X93.336 Y61.813 E3.32016
G1 X94.617 Y61.388 E3.36505
G1 X95.878 Y61.01 E3.40884
G1 X97.094 Y60.672 E3.45082
G1 X98.41 Y60.348 E3.49589
G1 X99.581 Y60.085 E3.53581
G1 X100.761 Y59.857 E3.57578
G1 X102.079 Y59.63 E3.62027
G1 X103.399 Y59.443 E3.66461
G1 X104.654 Y59.292 E3.70665
G1 X106.029 Y59.166 E3.75258
G1 X106.856 Y59.105 E3.78016
G1 X108.544 Y59.033 E3.83635
G1 X109.745 Y59.01 E3.8763
G1 X110.885 Y59.019 E3.91422
G1 X112.324 Y59.063 E3.9621
G1 X113.603 Y59.139 E4.00472
G1 X114.884 Y59.243 E4.04747
G1 X116.243 Y59.394 E4.09294
G1 X117.434 Y59.553 E4.13291
G1 X118.765 Y59.771 E4.17777
G1 X119.931 Y59.985 E4.2172
G1 X121.252 Y60.268 E4.26213
G1 X122.428 Y60.546 E4.30232
G1 X123.731 Y60.894 E4.34718
G1 X124.925 Y61.24 E4.38853
G1 X126.057 Y61.604 E4.42807
G1 X127.331 Y62.042 E4.47288
G1 X128.579 Y62.514 E4.51726
G1 X129.744 Y62.985 E4.55906
G1 X130.988 Y63.529 E4.60421
G1 X132.064 Y64.027 E4.64365
G1 X133.093 Y64.538 E4.68186
G1 X134.348 Y65.195 E4.72898
G1 X135.478 Y65.832 E4.77212
G1 X136.618 Y66.504 E4.81614
G1 X137.577 Y67.108 E4.85383
G1 X138.723 Y67.865 E4.89951
G1 X139.863 Y68.666 E4.94585
G1 X140.814 Y69.367 E4.98515
G1 X141.764 Y70.11 E5.02526
G1 X142.786 Y70.94 E5.06905
G1 X143.845 Y71.856 E5.11562
G1 X144.47 Y72.416 E5.14353
G1 X145.673 Y73.561 E5.19877
G1 X146.551 Y74.438 E5.24005
G1 X147.478 Y75.42 E5.28496
G1 X148.303 Y76.333 E5.32589
G1 X149.163 Y77.341 E5.36996
G1 X149.94 Y78.293 E5.41083
G1 X150.757 Y79.354 E5.45537
G1 X151.32 Y80.112 E5.48677
G1 X152.24 Y81.433 E5.54031
G1 X152.91 Y82.443 E5.58063
G1 X153.628 Y83.598 E5.62586
G1 X154.266 Y84.677 E5.66755
G1 X154.838 Y85.711 E5.70685
G1 X155.471 Y86.912 E5.75201
G1 X156.054 Y88.102 E5.79608
G1 X156.57 Y89.216 E5.83692
G1 X157.118 Y90.496 E5.88323
G1 X157.562 Y91.598 E5.92274
G1 X158.038 Y92.887 E5.96844
G1 X158.408 Y93.955 E6.00604
G1 X158.814 Y95.247 E6.05108
G1 X159.166 Y96.459 E6.09306
G1 X159.493 Y97.719 E6.13635
G1 X159.793 Y98.981 E6.1795
G1 X160.066 Y100.316 E6.22482
G1 X160.275 Y101.454 E6.2633
G1 X160.486 Y102.822 E6.30934
G1 X160.636 Y103.941 E6.34689
G1 X160.783 Y105.354 E6.39414
G1 X160.878 Y106.527 E6.43328
G1 X160.952 Y107.903 E6.47912
G1 X160.99 Y109.111 E6.51931
G1 X160.993 Y110.463 E6.56428
G1 X160.97 Y111.696 E6.6053
G1 X160.906 Y113.014 E6.64919
G1 X160.823 Y114.218 E6.68933
G1 X160.689 Y115.578 E6.73478
G1 X160.543 Y116.804 E6.77585
G1 X160.34 Y118.146 E6.82099
G1 X160.142 Y119.299 E6.8599
G1 X159.876 Y120.621 E6.90475
G1 X159.613 Y121.802 E6.94499
G1 X159.28 Y123.117 E6.99011
G1 X158.96 Y124.27 E7.02991
G1 X158.568 Y125.547 E7.07434
G1 X158.162 Y126.769 E7.11717
G1 X157.705 Y128.021 E7.1615
G1 X157.255 Y129.174 E7.20266
G1 X156.734 Y130.406 E7.24715
G1 X156.397 Y131.167 E7.27483
G1 X155.653 Y132.719 E7.33208
G1 X155.106 Y133.792 E7.37214
G1 X154.47 Y134.955 E7.41622
G1 X153.87 Y136.002 E7.45636
G1 X153.177 Y137.131 E7.50042
G1 X152.468 Y138.231 E7.54395
G1 X151.721 Y139.319 E7.58784
G1 X151.035 Y140.276 E7.62701
G1 X150.248 Y141.312 E7.67028
G1 X149.433 Y142.338 E7.71386
G1 X148.707 Y143.196 E7.75124
G1 X147.773 Y144.258 E7.79828
G1 X146.889 Y145.205 E7.84137
G1 X146.276 Y145.842 E7.87077
G1 X145.045 Y147.042 E7.92795
G1 X144.172 Y147.853 E7.96758
G1 X143.125 Y148.77 E8.01387
G1 X142.21 Y149.535 E8.05354
G1 X141.148 Y150.373 E8.09854
G1 X140.183 Y151.103 E8.13878
G1 X139.086 Y151.883 E8.18355
G1 X138.071 Y152.571 E8.22433
G1 X136.949 Y153.288 E8.26862
G1 X135.904 Y153.923 E8.30929
G1 X134.743 Y154.587 E8.35378
G1 X133.671 Y155.167 E8.39431
G1 X132.452 Y155.783 E8.43974
G1 X131.336 Y156.317 E8.48089
G1 X130.268 Y156.79 E8.51974
G1 X129.037 Y157.306 E8.56413
G1 X127.734 Y157.807 E8.61057
G1 X126.61 Y158.212 E8.6503
G1 X125.341 Y158.628 E8.69472
G1 X124.159 Y158.987 E8.73581
G1 X122.902 Y159.33 E8.77914
G1 X121.691 Y159.634 E8.82067
G1 X120.366 Y159.924 E8.86578
G1 X119.178 Y160.16 E8.90607
G1 X117.876 Y160.377 E8.94997
G1 X116.654 Y160.554 E8.99104
G1 X115.338 Y160.708 E9.03511
G1 X114.082 Y160.827 E9.07707
G1 X112.761 Y160.915 E9.1211
G1 X111.552 Y160.968 E9.16135
G1 X110.216 Y160.988 E9.20579
G1 X108.939 Y160.98 E9.24827
G1 X107.599 Y160.931 E9.29287
G1 X106.418 Y160.865 E9.33221
G1 X105.074 Y160.749 E9.37708
G1 X103.869 Y160.618 E9.41739
G1 X102.497 Y160.432 E9.46344
G1 X101.315 Y160.245 E9.50324
G1 X99.981 Y159.994 E9.54839
G1 X98.846 Y159.756 E9.58696
G1 X97.495 Y159.43 E9.63319
G1 X96.346 Y159.127 E9.67271
G1 X95.022 Y158.736 E9.71863
G1 X93.891 Y158.377 E9.75809
G1 X92.571 Y157.915 E9.80461
G1 X91.475 Y157.503 E9.84355
G1 X90.215 Y156.99 E9.8888
G1 X89.106 Y156.51 E9.92899
G1 X87.895 Y155.945 E9.97344
G1 X86.825 Y155.415 E10.01315
G1 X85.616 Y154.775 E10.05865
G1 X84.507 Y154.156 E10.10089
G1 X83.55 Y153.586 E10.13794
G1 X82.349 Y152.837 E10.18502
G1 X81.214 Y152.082 E10.23036
G1 X80.235 Y151.396 E10.27012
G1 X79.152 Y150.593 E10.31496
G1 X78.463 Y150.064 E10.34385
G1 X77.289 Y149.109 E10.39419
G1 X76.226 Y148.196 E10.44079
G1 X75.235 Y147.292 E10.48541
G1 X74.345 Y146.445 E10.52627
G1 X73.4 Y145.494 E10.57086
G1 X72.579 Y144.63 E10.6105
G1 X71.675 Y143.623 E10.65551
G0 F9000 X72.877 Y144.363
G1 F1800 X71.977 Y143.361 E10.70031
G1 X71.381 Y142.673 E10.73058
G1 X70.356 Y141.416 E10.78453
G1 X69.584 Y140.421 E10.82642
G1 X68.812 Y139.363 E10.86998
G1 X68.152 Y138.418 E10.90831
G1 X67.403 Y137.277 E10.95371
G1 X66.735 Y136.21 E10.99558
G1 X66.104 Y135.133 E11.0371
G1 X65.504 Y134.06 E11.07799
G1 X64.889 Y132.881 E11.12221
G1 X64.326 Y131.742 E11.16447
G1 X63.765 Y130.517 E11.20928
G1 X63.325 Y129.499 E11.24617
G1 X62.825 Y128.251 E11.29089
G1 X62.489 Y127.365 E11.3224
G1 X61.948 Y125.801 E11.37745
G1 X61.68 Y124.969 E11.40652
G1 X61.218 Y123.374 E11.46175
G1 X60.916 Y122.23 E11.5011
G1 X60.605 Y120.895 E11.54669
G1 X60.362 Y119.736 E11.58608
G1 X60.112 Y118.349 E11.63296
G1 X59.937 Y117.244 E11.67017
G1 X59.762 Y115.884 E11.71577
G1 X59.632 Y114.665 E11.75655
G1 X59.532 Y113.369 E11.79978
G1 X59.461 Y112.147 E11.84049
G1 X59.428 Y110.987 E11.87909
G1 X59.417 Y109.604 E11.92509
G1 X59.442 Y108.435 E11.96398
G1 X59.499 Y107.092 E12.00869
G1 X59.6 Y105.715 E12.05461
G1 X59.676 Y104.873 E12.08273
G1 X59.88 Y103.175 E12.13961
G1 X60.045 Y102.045 E12.17759
G1 X60.253 Y100.849 E12.21797
G1 X60.516 Y99.505 E12.26352
G1 X60.802 Y98.249 E12.30636
G1 X61.098 Y97.064 E12.34699
G1 X61.406 Y95.957 E12.38521
G1 X61.82 Y94.591 E12.43268
G1 X62.238 Y93.347 E12.47633
G1 X62.647 Y92.211 E12.51649
G1 X63.144 Y90.945 E12.56172
G1 X63.595 Y89.865 E12.60065
G1 X64.083 Y88.784 E12.6401
G1 X64.682 Y87.525 E12.68647
G1 X65.285 Y86.354 E12.73028
G1 X65.853 Y85.303 E12.77001
G1 X66.431 Y84.303 E12.80843
G1 X67.159 Y83.103 E12.85511
G1 X67.879 Y81.991 E12.89917
G1 X68.569 Y80.975 E12.94002
G1 X69.339 Y79.913 E12.98365
G1 X70.07 Y78.944 E13.02402
G1 X70.772 Y78.066 E13.06141
G1 X71.713 Y76.939 E13.11024
G1 X72.603 Y75.938 E13.15479
G1 X73.382 Y75.098 E13.1929
G1 X74.192 Y74.272 E13.23138
G1 X75.221 Y73.266 E13.27924
G1 X76.023 Y72.526 E13.31553
G1 X77.111 Y71.564 E13.36384
G1 X77.98 Y70.84 E13.40146
G1 X79.048 Y69.986 E13.44694
G1 X80.128 Y69.177 E13.49182
G1 X81.119 Y68.467 E13.53237
G1 X82.086 Y67.815 E13.57116
G1 X83.218 Y67.083 E13.61599
G1 X84.193 Y66.494 E13.65388
G1 X85.461 Y65.763 E13.70256
G1 X86.402 Y65.257 E13.7381
G1 X87.695 Y64.594 E13.78643
G1 X88.912 Y64.019 E13.83119
G1 X89.967 Y63.546 E13.86965
G1 X91.224 Y63.027 E13.91488
G1 X92.361 Y62.585 E13.95545
G1 X93.462 Y62.193 E13.99433
G1 X94.732 Y61.771 E14.03884
G1 X95.985 Y61.395 E14.08235
G1 X97.19 Y61.06 E14.12395
G1 X98.497 Y60.738 E14.16872
G1 X99.657 Y60.478 E14.20826
G1 X100.829 Y60.251 E14.24796
G1 X102.135 Y60.026 E14.29204
G1 X103.447 Y59.84 E14.33611
G1 X104.69 Y59.69 E14.37775
G1 X106.058 Y59.565 E14.42344
G1 X106.873 Y59.505 E14.45062
G1 X108.552 Y59.433 E14.50652
G1 X109.742 Y59.41 E14.54611
G1 X110.873 Y59.419 E14.58372
G1 X112.3 Y59.462 E14.63121
G1 X113.571 Y59.538 E14.67356
G1 X114.84 Y59.641 E14.7159
G1 X116.19 Y59.791 E14.76108
G1 X117.37 Y59.948 E14.80067
G1 X118.693 Y60.164 E14.84526
G1 X119.847 Y60.376 E14.88428
G1 X121.16 Y60.657 E14.92894
G1 X122.325 Y60.932 E14.96876
G1 X123.62 Y61.278 E15.01334
G1 X124.803 Y61.621 E15.05431
G1 X125.927 Y61.982 E15.09357
G1 X127.189 Y62.416 E15.13796
G1 X128.429 Y62.885 E15.18205
G1 X129.584 Y63.352 E15.22349
G1 X130.82 Y63.892 E15.26835
G1 X131.886 Y64.385 E15.30741
G1 X132.908 Y64.892 E15.34536
G1 X134.152 Y65.543 E15.39206
G1 X135.275 Y66.176 E15.43493
G1 X136.405 Y66.843 E15.47858
G1 X137.357 Y67.442 E15.51599
G1 X138.493 Y68.192 E15.56126
G1 X139.626 Y68.988 E15.60732
G1 X140.568 Y69.682 E15.64623
G1 X141.512 Y70.42 E15.68609
G1 X142.524 Y71.242 E15.72945
G1 X143.578 Y72.154 E15.77581
G1 X144.194 Y72.706 E15.80332
G1 X145.39 Y73.844 E15.85823
G1 X146.26 Y74.713 E15.89913
G1 X147.181 Y75.688 E15.94373
G1 X147.999 Y76.593 E15.98431
G1 X148.853 Y77.594 E16.02807
G1 X149.623 Y78.537 E16.06856
G1 X150.436 Y79.592 E16.11286
G1 X150.992 Y80.341 E16.14389
G1 X151.907 Y81.654 E16.19712
G1 X152.57 Y82.654 E16.23702
G1 X153.284 Y83.802 E16.28199
G1 X153.916 Y84.871 E16.32329
G1 X154.484 Y85.898 E16.36233
G1 X155.112 Y87.088 E16.40708
G1 X155.691 Y88.27 E16.45086
G1 X156.202 Y89.373 E16.49129
G1 X156.747 Y90.646 E16.53735
G1 X157.187 Y91.737 E16.57647
G1 X157.66 Y93.018 E16.62189
G1 X158.026 Y94.075 E16.65909
G1 X158.43 Y95.359 E16.70386
G1 X158.779 Y96.56 E16.74546
G1 X159.104 Y97.812 E16.78848
G1 X159.401 Y99.061 E16.83118
G1 X159.673 Y100.388 E16.87624
G1 X159.88 Y101.515 E16.91435
G1 X160.09 Y102.875 E16.96012
G1 X160.238 Y103.982 E16.99727
G1 X160.384 Y105.387 E17.04425
G1 X160.479 Y106.548 E17.08299
G1 X160.552 Y107.916 E17.12856
G1 X160.59 Y109.112 E17.16836
G1 X160.593 Y110.455 E17.21302
G1 X160.57 Y111.677 E17.25368
G1 X160.507 Y112.987 E17.2973
G1 X160.425 Y114.179 E17.33704
G1 X160.292 Y115.531 E17.38222
G1 X160.147 Y116.744 E17.42285
G1 X159.946 Y118.078 E17.46772
G1 X159.75 Y119.22 E17.50626
G1 X159.486 Y120.534 E17.55084
G1 X159.225 Y121.704 E17.59071
G1 X158.894 Y123.01 E17.63552
G1 X158.578 Y124.152 E17.67493
G1 X158.188 Y125.421 E17.71909
G1 X157.786 Y126.632 E17.76153
G1 X157.332 Y127.876 E17.80557
G1 X156.887 Y129.018 E17.84634
G1 X156.368 Y130.244 E17.89062
G1 X156.036 Y130.994 E17.9179
G1 X155.297 Y132.537 E17.9748
G1 X154.755 Y133.6 E18.01448
G1 X154.123 Y134.756 E18.0583
G1 X153.529 Y135.793 E18.09805
G1 X152.841 Y136.914 E18.1418
G1 X152.138 Y138.005 E18.18497
G1 X151.396 Y139.086 E18.22858
G1 X150.717 Y140.034 E18.26736
G1 X149.935 Y141.063 E18.31035
G1 X149.127 Y142.08 E18.35355
G1 X148.407 Y142.932 E18.39065
G1 X147.481 Y143.985 E18.43729
G1 X146.601 Y144.928 E18.48019
G1 X145.997 Y145.556 E18.50917
G1 X144.773 Y146.749 E18.56602
G1 X143.908 Y147.552 E18.60527
G1 X142.868 Y148.463 E18.65126
G1 X141.962 Y149.221 E18.69055
G1 X140.907 Y150.054 E18.73526
G1 X139.951 Y150.777 E18.77512
G1 X138.862 Y151.552 E18.81958
G1 X137.856 Y152.234 E18.86
G1 X136.741 Y152.946 E18.904
G1 X135.706 Y153.576 E18.9443
G1 X134.553 Y154.235 E18.98847
G1 X133.491 Y154.81 E19.02864
G1 X132.279 Y155.422 E19.0738
G1 X131.174 Y155.951 E19.11455
G1 X130.113 Y156.421 E19.15314
G1 X128.893 Y156.933 E19.19715
G1 X127.598 Y157.431 E19.2433
G1 X126.485 Y157.832 E19.28264
G1 X125.225 Y158.245 E19.32674
G1 X124.054 Y158.601 E19.36745
G1 X122.805 Y158.942 E19.41051
G1 X121.605 Y159.243 E19.45166
G1 X120.288 Y159.532 E19.49651
G1 X119.112 Y159.765 E19.53638
G1 X117.818 Y159.981 E19.58002
G1 X116.608 Y160.157 E19.62069
G1 X115.3 Y160.31 E19.66449
G1 X114.056 Y160.428 E19.70605
G1 X112.743 Y160.515 E19.74981
G1 X111.546 Y160.568 E19.78967
G1 X110.219 Y160.588 E19.83381
G1 X108.953 Y160.58 E19.87592
G1 X107.622 Y160.532 E19.92021
G1 X106.452 Y160.466 E19.95919
G1 X105.117 Y160.351 E20.00376
G1 X103.923 Y160.222 E20.0437
G1 X102.559 Y160.037 E20.08948
G1 X101.389 Y159.852 E20.12888
G1 X100.063 Y159.602 E20.17376
G1 X98.94 Y159.367 E20.21192
G1 X97.597 Y159.043 E20.25787
G1 X96.459 Y158.743 E20.29701
G1 X95.143 Y158.355 E20.34265
G1 X94.023 Y157.999 E20.38173
G1 X92.711 Y157.54 E20.42796
G1 X91.626 Y157.133 E20.46651
G1 X90.374 Y156.623 E20.51147
G1 X89.275 Y156.147 E20.55131
G1 X88.072 Y155.586 E20.59545
G1 X87.012 Y155.062 E20.63478
G1 X85.811 Y154.426 E20.67998
G1 X84.712 Y153.813 E20.72184
G1 X83.762 Y153.246 E20.75863
G1 X82.571 Y152.504 E20.80531
G1 X81.444 Y151.754 E20.85033
G1 X80.465 Y151.068 E20.89009
G1 X79.395 Y150.275 E20.93439
G1 X78.715 Y149.754 E20.96288
G1 X77.55 Y148.806 E21.01284
G1 X76.496 Y147.901 E21.05904
G1 X75.511 Y147.002 E21.1034
G1 X74.629 Y146.163 E21.14389
G1 X73.69 Y145.218 E21.18819
G1 X72.877 Y144.363 E21.22744
G0 F9000 X73.98 Y144.942
G1 F1800 X73.175 Y144.096 E21.26628
G1 X72.279 Y143.099 E21.31086
G1 X71.691 Y142.42 E21.34074
G1 X70.672 Y141.171 E21.39435
G1 X69.907 Y140.185 E21.43586
G1 X69.14 Y139.134 E21.47913
G1 X68.486 Y138.198 E21.51711
G1 X67.742 Y137.065 E21.56219
G1 X67.08 Y136.008 E21.60367
G1 X66.453 Y134.938 E21.64492
G1 X65.859 Y133.875 E21.68542
