;FLAVOR:Marlin
;TIME:5410
;Filament used: 4.42125m
;Layer height: 0.2
;MINX:55.407
;MINY:59.865
;MINZ:0.2
;MAXX:155.25
;MAXY:152.826
;MAXZ:17
;TARGET_MACHINE.NAME:Creality Ender-3 V3 SE
;Generated with Cura_SteamEngine 5.9.0
M82 ;absolute extrusion mode
M220 S100 ;Reset Feedrate
M221 S100 ;Reset Flowrate

G28 ;Home

M420 S1; Use saved mesh leveling data

G92 E0 ;Reset Extruder
G1 Z2.0 F3000 ;Move Z Axis up
G1 X-3 Y20 Z0.28 F5000.0 ;Move to start position
M190 S70 ; Set bed temperature and wait
M109 S200 ; Set hotend temperature and wait
G1 X-3 Y100.0 Z0.28 F1500.0 E15 ;Draw the first line
G1 X-2 Y100.0 Z0.28 F5000.0 ;Move to side a little
G1 X-2 Y20 Z0.28 F1500.0 E30 ;Draw the second line
G92 E0 ;Reset Extruder
G1 E-1.0000 F1800 ;Retract a bit
G1 Z2.0 F3000 ;Move Z Axis up
G1 E0.0000 F1800 

G92 E0
G92 E0
G1 F2400 E-0.8
;LAYER_COUNT:85
;LAYER:0
M107
G0 F9000 X97.042 Y152.237 Z0.2
;TYPE:SKIRT
G1 F2400 E0
G1 F1800 X94.493 Y151.699 E0.08665
G1 X92.033 Y151.25 E0.16982
G1 X89.57 Y150.874 E0.25269
G1 X85.651 Y150.412 E0.38394
G1 X84.69 Y150.253 E0.41633
G1 X83.815 Y150.029 E0.44638
G1 X82.829 Y149.681 E0.48115
G1 X81.944 Y149.275 E0.51354
G1 X81.099 Y148.792 E0.54591
G1 X80.295 Y148.233 E0.57848
G1 X79.439 Y147.509 E0.61577
G1 X78.547 Y146.665 E0.65661
G1 X77.602 Y145.714 E0.7012
G1 X76.716 Y144.767 E0.74434
G1 X76.114 Y144.094 E0.77437
G1 X75.121 Y142.915 E0.82564
G1 X74.364 Y141.963 E0.86609
G1 X73.401 Y140.668 E0.91977
G1 X72.834 Y139.856 E0.95271
G1 X71.423 Y137.715 E1.03799
G1 X70.945 Y136.968 E1.06749
G1 X69.553 Y134.925 E1.14971
G1 X68.056 Y132.857 E1.23462
G1 X66.538 Y130.879 E1.31755
G1 X64.93 Y128.899 E1.40239
G1 X63.321 Y127.03 E1.48441
G1 X61.607 Y125.153 E1.56896
G1 X59.004 Y122.467 E1.69336
G1 X58.361 Y121.738 E1.72569
G1 X57.783 Y120.953 E1.75811
G1 X57.294 Y120.15 E1.78939
G1 X56.847 Y119.24 E1.82311
G1 X56.443 Y118.171 E1.86112
G1 X56.211 Y117.426 E1.88707
G1 X55.824 Y116.067 E1.93407
G1 X55.596 Y115.102 E1.96705
G1 X55.466 Y114.208 E1.99709
G1 X55.407 Y113.163 E2.0319
G1 X55.442 Y112.192 E2.06422
G1 X55.556 Y111.256 E2.09558
G1 X55.809 Y110.115 E2.13445
G1 X56.201 Y108.731 E2.1823
G1 X56.426 Y107.999 E2.20777
G1 X56.744 Y107.116 E2.23898
G1 X57.168 Y106.201 E2.27252
G1 X57.655 Y105.357 E2.30493
G1 X58.217 Y104.556 E2.33748
G1 X58.914 Y103.736 E2.37327
G1 X59.775 Y102.82 E2.41509
G1 X60.41 Y102.168 E2.44536
G1 X60.929 Y101.672 E2.46923
G1 X62.586 Y100.19 E2.54317
G1 X64.433 Y98.449 E2.62759
G1 X66.209 Y96.678 E2.71101
G1 X67.929 Y94.861 E2.79423
G1 X69.613 Y92.98 E2.8782
G1 X71.236 Y91.061 E2.96179
G1 X72.802 Y89.097 E3.04534
G1 X74.442 Y86.937 E3.13554
G1 X75.265 Y85.91 E3.17932
G1 X75.957 Y85.086 E3.21511
G1 X76.766 Y84.178 E3.25555
G1 X77.577 Y83.309 E3.29509
G1 X78.312 Y82.565 E3.32987
G1 X79.265 Y81.646 E3.37391
G1 X80.233 Y80.767 E3.4174
G1 X81.062 Y80.051 E3.45383
G1 X82.062 Y79.237 E3.49672
G1 X82.9 Y78.587 E3.53199
G1 X83.919 Y77.843 E3.57395
G1 X84.79 Y77.235 E3.60928
G1 X87.156 Y75.659 E3.70384
G1 X89.206 Y74.21 E3.78733
G1 X91.27 Y72.664 E3.8731
G1 X93.195 Y71.134 E3.95489
G1 X95.126 Y69.508 E4.03885
G1 X97.049 Y67.793 E4.12455
G1 X98.821 Y66.122 E4.20556
G1 X100.68 Y64.266 E4.29293
G1 X101.258 Y63.675 E4.32043
G1 X101.97 Y63.011 E4.35281
G1 X102.681 Y62.454 E4.38285
G1 X103.557 Y61.885 E4.41759
G1 X104.42 Y61.43 E4.45004
G1 X105.311 Y61.058 E4.48215
G1 X106.039 Y60.819 E4.50764
G1 X107.472 Y60.405 E4.55725
G1 X108.164 Y60.223 E4.58105
G1 X109.115 Y60.019 E4.6134
G1 X110.081 Y59.899 E4.64577
G1 X110.983 Y59.865 E4.6758
G1 X112.027 Y59.919 E4.71057
G1 X112.953 Y60.05 E4.74167
G1 X113.721 Y60.221 E4.76784
G1 X114.973 Y60.553 E4.81092
G1 X115.933 Y60.834 E4.84419
G1 X116.788 Y61.125 E4.87423
G1 X117.743 Y61.55 E4.909
G1 X118.533 Y61.987 E4.93902
G1 X119.399 Y62.573 E4.9738
G1 X120.123 Y63.165 E5.00491
G1 X120.718 Y63.736 E5.03234
G1 X121.764 Y64.825 E5.08256
G1 X122.951 Y66.114 E5.14084
G1 X124.718 Y67.982 E5.22636
G1 X126.523 Y69.786 E5.31124
G1 X128.345 Y71.505 E5.39455
G1 X130.219 Y73.175 E5.47804
G1 X132.149 Y74.801 E5.56198
G1 X134.109 Y76.359 E5.64525
G1 X137.293 Y78.733 E5.77735
G1 X138.591 Y79.766 E5.83253
G1 X139.414 Y80.457 E5.86827
G1 X140.322 Y81.266 E5.90872
G1 X141.194 Y82.08 E5.94839
G1 X142.084 Y82.963 E5.99009
G1 X142.631 Y83.527 E6.01622
G1 X143.733 Y84.733 E6.07056
G1 X144.457 Y85.573 E6.10744
G1 X145.256 Y86.555 E6.14955
G1 X145.913 Y87.401 E6.18518
G1 X146.675 Y88.444 E6.22814
G1 X147.321 Y89.377 E6.26588
G1 X147.99 Y90.403 E6.30662
G1 X148.621 Y91.422 E6.34648
G1 X149.124 Y92.289 E6.37982
G1 X149.796 Y93.514 E6.42629
G1 X150.425 Y94.755 E6.47257
G1 X150.853 Y95.654 E6.50569
G1 X151.342 Y96.759 E6.54588
G1 X151.786 Y97.827 E6.58435
G1 X152.166 Y98.815 E6.61955
G1 X152.491 Y99.712 E6.65129
G1 X152.932 Y101.056 E6.69833
G1 X153.326 Y102.372 E6.74402
G1 X153.587 Y103.357 E6.77791
G1 X153.901 Y104.656 E6.82236
G1 X154.159 Y105.893 E6.86439
G1 X154.364 Y107.02 E6.90249
G1 X154.542 Y108.183 E6.94162
G1 X154.79 Y110.017 E7.00318
G1 X154.915 Y111.039 E7.03742
G1 X155.149 Y112.662 E7.09196
G1 X155.242 Y113.631 E7.12434
G1 X155.25 Y114.606 E7.15677
G1 X155.17 Y115.594 E7.18974
G1 X155.038 Y116.625 E7.22431
G1 X154.839 Y118.437 E7.28494
G1 X154.791 Y118.746 E7.29534
G1 X154.625 Y120.219 E7.34464
G1 X154.436 Y121.527 E7.3886
G1 X154.262 Y122.566 E7.42363
G1 X154.145 Y123.173 E7.4442
G1 X153.845 Y124.583 E7.49214
G1 X153.47 Y126.084 E7.5436
G1 X153.116 Y127.352 E7.58739
G1 X152.778 Y128.433 E7.62506
G1 X152.402 Y129.535 E7.66378
G1 X151.816 Y131.102 E7.71943
G1 X151.269 Y132.418 E7.76683
G1 X150.631 Y133.819 E7.81803
G1 X149.908 Y135.27 E7.87195
G1 X149.571 Y135.908 E7.89595
G1 X148.84 Y137.203 E7.94541
G1 X148.259 Y138.176 E7.9831
G1 X148.021 Y138.555 E7.99799
G1 X147.396 Y139.509 E8.03592
G1 X146.718 Y140.498 E8.0758
G1 X146.078 Y141.377 E8.11197
G1 X145.487 Y142.154 E8.14443
G1 X144.578 Y143.279 E8.19254
G1 X143.704 Y144.301 E8.23727
G1 X142.986 Y145.091 E8.27277
G1 X142.083 Y146.037 E8.31627
G1 X141.263 Y146.849 E8.35465
G1 X140.572 Y147.504 E8.38632
G1 X139.834 Y148.139 E8.4187
G1 X139.072 Y148.688 E8.44994
G1 X138.203 Y149.202 E8.48352
G1 X137.389 Y149.593 E8.51355
G1 X136.411 Y149.96 E8.5483
G1 X135.506 Y150.209 E8.57952
G1 X134.531 Y150.387 E8.61248
G1 X134.058 Y150.442 E8.62832
G1 X131.458 Y150.684 E8.71517
G1 X128.923 Y150.993 E8.80011
G1 X126.438 Y151.365 E8.88368
G1 X123.963 Y151.809 E8.96731
G1 X121.55 Y152.326 E9.04939
G1 X120.617 Y152.516 E9.08106
G1 X119.654 Y152.666 E9.11348
G1 X118.681 Y152.73 E9.14591
G1 X117.711 Y152.708 E9.17818
G1 X114.829 Y152.515 E9.27425
G1 X112.288 Y152.419 E9.35882
G1 X109.756 Y152.394 E9.44304
G1 X107.289 Y152.441 E9.52511
G1 X104.745 Y152.561 E9.60982
G1 X101.676 Y152.797 E9.71219
G1 X100.774 Y152.826 E9.74221
G1 X99.716 Y152.766 E9.77746
G1 X98.46 Y152.56 E9.81979
G1 X97.042 Y152.237 E9.86816
G0 F9000 X98.525 Y152.165
G1 F1800 X97.131 Y151.847 E9.91572
G1 X94.565 Y151.305 E10.00294
G1 X92.105 Y150.857 E10.08611
G1 X89.617 Y150.477 E10.16982
G1 X85.716 Y150.017 E10.30047
G1 X84.789 Y149.865 E10.33171
G1 X83.914 Y149.641 E10.36175
G1 X82.995 Y149.317 E10.39416
G1 X82.142 Y148.927 E10.42536
G1 X81.327 Y148.463 E10.45655
G1 X80.553 Y147.927 E10.48786
G1 X79.714 Y147.218 E10.5244
G1 X78.831 Y146.383 E10.56482
G1 X77.894 Y145.441 E10.60901
G1 X77.014 Y144.5 E10.65186
G1 X76.42 Y143.836 E10.68149
G1 X75.434 Y142.666 E10.73238
G1 X74.685 Y141.724 E10.77241
G1 X73.729 Y140.439 E10.82568
G1 X73.168 Y139.636 E10.85826
G1 X71.76 Y137.499 E10.94338
G1 X71.282 Y136.752 E10.97288
G1 X69.884 Y134.7 E11.05546
G1 X68.38 Y132.622 E11.14078
G1 X66.855 Y130.635 E11.22409
G1 X65.233 Y128.638 E11.30966
G1 X63.624 Y126.769 E11.39168
G1 X61.902 Y124.883 E11.47662
G1 X59.304 Y122.202 E11.60079
G1 X58.683 Y121.5 E11.63197
G1 X58.125 Y120.745 E11.66319
G1 X57.636 Y119.942 E11.69446
G1 X57.221 Y119.098 E11.72574
G1 X56.825 Y118.052 E11.76294
G1 X56.596 Y117.316 E11.78858
G1 X56.209 Y115.957 E11.83558
G1 X55.992 Y115.044 E11.86679
G1 X55.862 Y114.15 E11.89684
G1 X55.807 Y113.177 E11.92925
G1 X55.839 Y112.24 E11.96043
G1 X55.947 Y111.343 E11.99048
G1 X56.2 Y110.202 E12.02935
G1 X56.583 Y108.849 E12.07612
G1 X56.803 Y108.134 E12.10101
G1 X57.107 Y107.284 E12.13103
G1 X57.515 Y106.4 E12.16341
G1 X57.983 Y105.586 E12.19464
G1 X58.522 Y104.815 E12.22593
G1 X59.206 Y104.01 E12.26107
G1 X60.062 Y103.099 E12.30264
G1 X60.687 Y102.457 E12.33244
G1 X61.196 Y101.97 E12.35587
G1 X62.853 Y100.488 E12.42981
G1 X64.707 Y98.74 E12.51456
G1 X66.491 Y96.961 E12.59836
G1 X68.227 Y95.128 E12.68233
G1 X69.911 Y93.247 E12.7663
G1 X71.549 Y91.31 E12.85067
G1 X73.121 Y89.339 E12.93452
G1 X74.754 Y87.187 E13.02437
G1 X75.571 Y86.167 E13.06784
G1 X76.255 Y85.352 E13.10323
G1 X77.059 Y84.451 E13.14339
G1 X77.862 Y83.59 E13.18255
G1 X78.59 Y82.853 E13.21701
G1 X79.534 Y81.942 E13.26064
G1 X80.494 Y81.07 E13.30378
G1 X81.315 Y80.361 E13.33985
G1 X82.307 Y79.553 E13.38241
G1 X83.136 Y78.91 E13.4173
G1 X84.148 Y78.171 E13.45898
G1 X85.012 Y77.568 E13.49402
G1 X87.387 Y75.986 E13.58894
G1 X89.437 Y74.537 E13.67243
G1 X91.51 Y72.984 E13.75858
G1 X93.453 Y71.44 E13.84113
G1 X95.384 Y69.814 E13.92509
G1 X97.315 Y68.092 E14.01114
G1 X99.104 Y66.405 E14.09293
G1 X100.963 Y64.549 E14.1803
G1 X101.531 Y63.967 E14.20735
G1 X102.217 Y63.326 E14.23858
G1 X102.928 Y62.769 E14.26862
G1 X103.744 Y62.239 E14.30098
G1 X104.575 Y61.799 E14.33225
G1 X105.436 Y61.438 E14.36331
G1 X106.15 Y61.203 E14.38831
G1 X107.574 Y60.792 E14.4376
G1 X108.248 Y60.614 E14.46079
G1 X109.165 Y60.416 E14.49199
G1 X110.096 Y60.299 E14.5232
G1 X110.998 Y60.265 E14.55322
G1 X111.971 Y60.315 E14.58563
G1 X112.866 Y60.441 E14.61569
G1 X113.619 Y60.608 E14.64134
G1 X114.861 Y60.937 E14.68407
G1 X115.804 Y61.213 E14.71675
G1 X116.659 Y61.504 E14.74679
G1 X117.549 Y61.9 E14.77919
G1 X118.339 Y62.337 E14.80922
G1 X119.146 Y62.883 E14.84163
G1 X119.846 Y63.454 E14.87167
G1 X120.441 Y64.025 E14.8991
G1 X121.47 Y65.096 E14.9485
G1 X122.66 Y66.389 E15.00695
G1 X124.435 Y68.265 E15.09285
G1 X126.24 Y70.069 E15.17772
G1 X128.079 Y71.804 E15.26181
G1 X129.961 Y73.481 E15.34566
G1 X131.891 Y75.107 E15.42959
G1 X133.87 Y76.68 E15.51367
G1 X137.044 Y79.046 E15.64534
G1 X138.334 Y80.072 E15.70017
G1 X139.148 Y80.755 E15.73551
G1 X140.049 Y81.559 E15.77567
G1 X140.912 Y82.364 E15.81492
G1 X141.797 Y83.241 E15.85636
G1 X142.336 Y83.797 E15.88212
G1 X143.43 Y84.994 E15.93606
G1 X144.147 Y85.825 E15.97256
G1 X144.94 Y86.8 E16.01436
G1 X145.59 Y87.637 E16.04961
G1 X146.346 Y88.672 E16.09224
G1 X146.986 Y89.595 E16.1296
G1 X147.65 Y90.614 E16.17005
G1 X148.275 Y91.623 E16.20952
G1 X148.773 Y92.482 E16.24255
G1 X149.439 Y93.695 E16.28857
G1 X150.064 Y94.927 E16.33452
G1 X150.487 Y95.816 E16.36727
G1 X150.973 Y96.913 E16.40717
G1 X151.413 Y97.97 E16.44525
G1 X151.79 Y98.951 E16.48021
G1 X152.111 Y99.837 E16.51155
G1 X152.549 Y101.171 E16.55825
G1 X152.939 Y102.475 E16.60352
G1 X153.198 Y103.451 E16.63711
G1 X153.509 Y104.738 E16.68114
G1 X153.767 Y105.975 E16.72317
G1 X153.969 Y107.081 E16.76057
G1 X154.146 Y108.237 E16.79946
G1 X154.393 Y110.066 E16.86085
G1 X154.519 Y111.096 E16.89536
G1 X154.751 Y112.701 E16.9493
G1 X154.842 Y113.635 E16.98051
G1 X154.851 Y114.574 E17.01174
G1 X154.773 Y115.543 E17.04408
G1 X154.641 Y116.574 E17.07865
G1 X154.444 Y118.375 E17.13891
G1 X154.393 Y118.701 E17.14988
G1 X154.229 Y120.162 E17.19878
G1 X154.042 Y121.461 E17.24243
G1 X153.869 Y122.491 E17.27717
G1 X153.754 Y123.09 E17.29745
G1 X153.457 Y124.486 E17.34492
G1 X153.085 Y125.976 E17.396
G1 X152.734 Y127.233 E17.43941
G1 X152.399 Y128.304 E17.47673
G1 X152.027 Y129.395 E17.51507
G1 X151.441 Y130.962 E17.57072
G1 X150.905 Y132.252 E17.61718
G1 X150.273 Y133.641 E17.66793
G1 X149.554 Y135.083 E17.72153
G1 X149.223 Y135.711 E17.74514
G1 X148.497 Y136.998 E17.79428
G1 X147.92 Y137.964 E17.83171
G1 X147.687 Y138.336 E17.84631
G1 X147.066 Y139.283 E17.88397
G1 X146.395 Y140.263 E17.92348
G1 X145.76 Y141.135 E17.95935
G1 X145.176 Y141.903 E17.99144
G1 X144.274 Y143.019 E18.03917
G1 X143.408 Y144.032 E18.0835
G1 X142.696 Y144.815 E18.1187
G1 X141.802 Y145.753 E18.16179
G1 X140.988 Y146.559 E18.1999
G1 X140.311 Y147.201 E18.23093
G1 X139.6 Y147.814 E18.26215
G1 X138.838 Y148.363 E18.29339
G1 X138.03 Y148.841 E18.32461
G1 X137.216 Y149.232 E18.35465
G1 X136.305 Y149.574 E18.38701
G1 X135.4 Y149.823 E18.41823
G1 X134.485 Y149.99 E18.44917
G1 X134.021 Y150.044 E18.4647
G1 X131.41 Y150.287 E18.55192
G1 X128.864 Y150.597 E18.63723
G1 X126.374 Y150.97 E18.72097
G1 X123.892 Y151.415 E18.80484
G1 X121.466 Y151.935 E18.88736
G1 X120.555 Y152.121 E18.91828
G1 X119.627 Y152.267 E18.94953
G1 X118.69 Y152.33 E18.98076
G1 X117.738 Y152.309 E19.01244
G1 X114.844 Y152.115 E19.10891
G1 X112.303 Y152.019 E19.19348
G1 X109.752 Y151.994 E19.27833
G1 X107.27 Y152.041 E19.3609
G1 X104.726 Y152.161 E19.44561
G1 X101.663 Y152.397 E19.54778
G1 X100.761 Y152.426 E19.5778
G1 X99.781 Y152.371 E19.61045
G1 X98.525 Y152.165 E19.65278
G0 F9000 X99.846 Y151.976
G1 F1800 X98.59 Y151.77 E19.69511
G1 X97.22 Y151.457 E19.74185
G1 X94.637 Y150.911 E19.82966
G1 X92.177 Y150.464 E19.91282
G1 X89.668 Y150.08 E19.99724
G1 X85.78 Y149.622 E20.12745
G1 X84.888 Y149.477 E20.15751
G1 X84.013 Y149.253 E20.18755
G1 X83.161 Y148.953 E20.21759
G1 X82.339 Y148.579 E20.24763
G1 X81.554 Y148.134 E20.27764
G1 X80.811 Y147.621 E20.30767
G1 X79.989 Y146.927 E20.34345
G1 X79.106 Y146.092 E20.38387
G1 X78.186 Y145.168 E20.42724
G1 X77.312 Y144.233 E20.46981
G1 X76.726 Y143.578 E20.49904
G1 X75.747 Y142.417 E20.54955
G1 X75.006 Y141.485 E20.58916
G1 X74.057 Y140.21 E20.64202
G1 X73.502 Y139.416 E20.67424
G1 X72.097 Y137.283 E20.75919
G1 X71.619 Y136.536 E20.78869
G1 X70.215 Y134.475 E20.87163
G1 X68.704 Y132.387 E20.95736
G1 X67.172 Y130.391 E21.04104
G1 X65.536 Y128.377 E21.12735
G1 X63.927 Y126.508 E21.20937
G1 X62.197 Y124.613 E21.29471
G1 X59.603 Y121.937 E21.41867
G1 X59.004 Y121.262 E21.44869
G1 X58.466 Y120.536 E21.47874
G1 X57.995 Y119.765 E21.50879
G1 X57.595 Y118.956 E21.53881
G1 X57.207 Y117.933 E21.5752
G1 X56.981 Y117.206 E21.60052
G1 X56.598 Y115.864 E21.64694
G1 X56.388 Y114.986 E21.67696
G1 X56.258 Y114.092 E21.70701
G1 X56.207 Y113.19 E21.73706
G1 X56.236 Y112.288 E21.76707
G1 X56.344 Y111.391 E21.79712
G1 X56.585 Y110.311 E21.83393
G1 X56.965 Y108.967 E21.88038
G1 X57.18 Y108.269 E21.90467
G1 X57.484 Y107.419 E21.9347
G1 X57.862 Y106.599 E21.96473
G1 X58.311 Y105.815 E21.99478
G1 X58.827 Y105.074 E22.02481
G1 X59.497 Y104.284 E22.05927
G1 X60.349 Y103.378 E22.10063
G1 X60.964 Y102.746 E22.12996
G1 X61.463 Y102.268 E22.15294
G1 X63.12 Y100.786 E22.22688
G1 X64.981 Y99.031 E22.31196
G1 X66.773 Y97.244 E22.39614
G1 X68.525 Y95.395 E22.48086
G1 X70.209 Y93.514 E22.56483
G1 X71.862 Y91.559 E22.64998
G1 X73.44 Y89.581 E22.73414
G1 X75.066 Y87.437 E22.82364
G1 X75.877 Y86.424 E22.8668
G1 X76.554 Y85.618 E22.9018
G1 X77.351 Y84.724 E22.94164
G1 X78.147 Y83.871 E22.98045
G1 X78.868 Y83.141 E23.01457
G1 X79.803 Y82.238 E23.0578
G1 X80.756 Y81.373 E23.10061
G1 X81.568 Y80.671 E23.13631
G1 X82.552 Y79.869 E23.17853
G1 X83.372 Y79.233 E23.21305
G1 X84.377 Y78.499 E23.25444
G1 X85.234 Y77.901 E23.2892
G1 X87.618 Y76.313 E23.38447
G1 X89.668 Y74.864 E23.46797
G1 X91.75 Y73.304 E23.5545
G1 X93.711 Y71.746 E23.6378
G1 X95.642 Y70.12 E23.72176
G1 X97.581 Y68.391 E23.80817
G1 X99.387 Y66.688 E23.89073
G1 X101.246 Y64.832 E23.9781
G1 X101.805 Y64.259 E24.00473
G1 X102.464 Y63.641 E24.03477
G1 X103.175 Y63.084 E24.06482
G1 X103.932 Y62.592 E24.09484
G1 X104.73 Y62.168 E24.1249
G1 X105.562 Y61.818 E24.15492
G1 X106.261 Y61.587 E24.17941
G1 X107.676 Y61.179 E24.22839
G1 X108.333 Y61.005 E24.25099
G1 X109.215 Y60.813 E24.28101
G1 X110.111 Y60.699 E24.31106
G1 X111.013 Y60.665 E24.34108
G1 X111.915 Y60.711 E24.37112
G1 X112.81 Y60.837 E24.40118
G1 X113.517 Y60.995 E24.42527
G1 X114.749 Y61.321 E24.46766
G1 X115.675 Y61.592 E24.49975
G1 X116.53 Y61.883 E24.52979
G1 X117.355 Y62.25 E24.55982
G1 X118.145 Y62.687 E24.58985
G1 X118.893 Y63.193 E24.61989
G1 X119.593 Y63.764 E24.64993
G1 X120.153 Y64.302 E24.67576
